Simply black circles/scalable/mimes/text-x-generic-template.svg

<?xml version="1.0" encoding="UTF-8" standalone="no"?>
<!-- Created with Inkscape (http://www.inkscape.org/) -->

<svg
   xmlns:dc="http://purl.org/dc/elements/1.1/"
   xmlns:cc="http://creativecommons.org/ns#"
   xmlns:rdf="http://www.w3.org/1999/02/22-rdf-syntax-ns#"
   xmlns:svg="http://www.w3.org/2000/svg"
   xmlns="http://www.w3.org/2000/svg"
   xmlns:xlink="http://www.w3.org/1999/xlink"
   xmlns:sodipodi="http://sodipodi.sourceforge.net/DTD/sodipodi-0.dtd"
   xmlns:inkscape="http://www.inkscape.org/namespaces/inkscape"
   version="1.1"
   width="48"
   height="48"
   id="svg21744"
   sodipodi:docname="text-x-generic-template.svg"
   inkscape:version="0.92.3 (2405546, 2018-03-11)">
  <sodipodi:namedview
     pagecolor="#ffffff"
     bordercolor="#666666"
     borderopacity="1"
     objecttolerance="10"
     gridtolerance="10"
     guidetolerance="10"
     inkscape:pageopacity="0"
     inkscape:pageshadow="2"
     inkscape:window-width="1366"
     inkscape:window-height="690"
     id="namedview44"
     showgrid="false"
     inkscape:zoom="7.2920387"
     inkscape:cx="1.3575758"
     inkscape:cy="24"
     inkscape:window-x="0"
     inkscape:window-y="28"
     inkscape:window-maximized="1"
     inkscape:current-layer="svg21744"
     inkscape:snap-global="false" />
  <defs
     id="defs21746">
    <linearGradient
       x1="525.4375"
       y1="836.1875"
       x2="516.65625"
       y2="828.5"
       id="linearGradient14113"
       xlink:href="#linearGradient14494-2-7"
       gradientUnits="userSpaceOnUse"
       gradientTransform="translate(-125.5,-1702.64)" />
    <linearGradient
       id="linearGradient14494-2-7">
      <stop
         id="stop14496-9-3"
         style="stop-color:#dc85e9;stop-opacity:1"
         offset="0" />
      <stop
         id="stop14498-9-7"
         style="stop-color:#f2cbf8;stop-opacity:1"
         offset="1" />
    </linearGradient>
    <linearGradient
       x1="520.58502"
       y1="735.05206"
       x2="516.15179"
       y2="720.86298"
       id="linearGradient14115"
       xlink:href="#linearGradient14494-5"
       gradientUnits="userSpaceOnUse" />
    <linearGradient
       id="linearGradient14494-5">
      <stop
         id="stop14496-5"
         style="stop-color:#dc85e9;stop-opacity:1"
         offset="0" />
      <stop
         id="stop14498-1"
         style="stop-color:#f2cbf8;stop-opacity:1"
         offset="1" />
    </linearGradient>
    <linearGradient
       x1="525.4375"
       y1="836.1875"
       x2="516.65625"
       y2="828.5"
       id="linearGradient54948"
       xlink:href="#linearGradient14494-2-7"
       gradientUnits="userSpaceOnUse"
       gradientTransform="translate(-462.50049,-802.00385)" />
    <linearGradient
       x1="520.58502"
       y1="735.05206"
       x2="516.15179"
       y2="720.86298"
       id="linearGradient14109"
       xlink:href="#linearGradient14494-5"
       gradientUnits="userSpaceOnUse"
       gradientTransform="matrix(0.512535,0,0,0.615385,-202.35949,-422.92385)" />
    <linearGradient
       x1="525.4375"
       y1="836.1875"
       x2="516.65625"
       y2="828.5"
       id="linearGradient54952"
       xlink:href="#linearGradient14494-2-7"
       gradientUnits="userSpaceOnUse"
       gradientTransform="translate(-462.50049,-797.50385)" />
    <linearGradient
       x1="209.0625"
       y1="-765.46082"
       x2="209.0625"
       y2="-781.62268"
       id="linearGradient44039"
       xlink:href="#linearGradient15606-1"
       gradientUnits="userSpaceOnUse"
       gradientTransform="matrix(1.5,0,0,1.5,-364.99949,1176.9562)" />
    <linearGradient
       id="linearGradient15606-1">
      <stop
         id="stop15608-0"
         style="stop-color:#ffffff;stop-opacity:0.58823502"
         offset="0" />
      <stop
         id="stop15610-5"
         style="stop-color:#ffffff;stop-opacity:0.86274499"
         offset="1" />
    </linearGradient>
    <linearGradient
       x1="294.3429"
       y1="256.58133"
       x2="294.41818"
       y2="243.13852"
       id="linearGradient44042"
       xlink:href="#linearGradient10286-3"
       gradientUnits="userSpaceOnUse"
       gradientTransform="matrix(2.99213,0,0,3.00466,-830.71149,-727.44385)" />
    <linearGradient
       id="linearGradient10286-3">
      <stop
         id="stop10288-8"
         style="stop-color:#b3b3b3;stop-opacity:1"
         offset="0" />
      <stop
         id="stop10290-7"
         style="stop-color:#e6e6e6;stop-opacity:1"
         offset="1" />
    </linearGradient>
    <linearGradient
       x1="110.96875"
       y1="976.29968"
       x2="110.96875"
       y2="992.375"
       id="linearGradient43236"
       xlink:href="#linearGradient4145-42"
       gradientUnits="userSpaceOnUse" />
    <linearGradient
       id="linearGradient4145-42">
      <stop
         id="stop4953"
         style="stop-color:#e694bb;stop-opacity:1"
         offset="0" />
      <stop
         id="stop4955"
         style="stop-color:#d3819a;stop-opacity:1"
         offset="0.26238" />
      <stop
         id="stop4957"
         style="stop-color:#b25a64;stop-opacity:1"
         offset="0.704952" />
      <stop
         id="stop4959"
         style="stop-color:#98313d;stop-opacity:1"
         offset="1" />
    </linearGradient>
    <linearGradient
       x1="110.96875"
       y1="976.29968"
       x2="110.99982"
       y2="991.87488"
       id="linearGradient14097-7"
       xlink:href="#linearGradient4145-42"
       gradientUnits="userSpaceOnUse"
       gradientTransform="matrix(1,0,0,1.00011,0,-0.10551)" />
    <linearGradient
       x1="110.96875"
       y1="976.29968"
       x2="110.96875"
       y2="992.375"
       id="linearGradient21742"
       xlink:href="#linearGradient4145-42"
       gradientUnits="userSpaceOnUse"
       gradientTransform="matrix(1.00399,0,0,1.00959,-1.1658,-9.36636)" />
    <clipPath
       clipPathUnits="userSpaceOnUse"
       id="clipPath867">
      <g
         inkscape:label="Clip"
         id="use869">
        <path
           d="m 47.000614,3.0210706 v 0.75 40.5000404 0.72723 h 0.75 32.499399 0.75 v -0.72723 -25.50003 -0.3282 l -0.2344,-0.2343 -14.9059,-15.0000104 -0.1875,-0.1875 h -0.3282 -17.593399 z"
           id="path875"
           style="color:#000000;font-style:normal;font-variant:normal;font-weight:normal;font-stretch:normal;font-size:medium;line-height:normal;font-family:'Andale Mono';text-indent:0pt;text-align:start;text-decoration:none;text-decoration-line:none;letter-spacing:normal;word-spacing:normal;text-transform:none;direction:ltr;text-anchor:start;display:inline;overflow:visible;visibility:visible;fill:#000000;fill-opacity:1;fill-rule:nonzero;stroke:none;stroke-width:1;marker:none"
           inkscape:connector-curvature="0" />
      </g>
    </clipPath>
    <linearGradient
       id="SVGID_1_"
       gradientUnits="userSpaceOnUse"
       x1="0"
       y1="258"
       x2="512"
       y2="258"
       gradientTransform="matrix(0.05719095,0,0,-0.05719095,9.2502803,42.718185)">
      <stop
         offset="0"
         style="stop-color:#00F2FE"
         id="stop2" />
      <stop
         offset="0.021"
         style="stop-color:#03EFFE"
         id="stop4" />
      <stop
         offset="0.293"
         style="stop-color:#24D2FE"
         id="stop6" />
      <stop
         offset="0.554"
         style="stop-color:#3CBDFE"
         id="stop8" />
      <stop
         offset="0.796"
         style="stop-color:#4AB0FE"
         id="stop10" />
      <stop
         offset="1"
         style="stop-color:#4FACFE"
         id="stop12" />
    </linearGradient>
  </defs>
  <metadata
     id="metadata21749">
    <rdf:RDF>
      <cc:Work
         rdf:about="">
        <dc:format>image/svg+xml</dc:format>
        <dc:type
           rdf:resource="http://purl.org/dc/dcmitype/StillImage" />
        <dc:title></dc:title>
      </cc:Work>
    </rdf:RDF>
  </metadata>
  <path
     style="color:#000000;font-style:normal;font-variant:normal;font-weight:normal;font-stretch:normal;font-size:medium;line-height:normal;font-family:'Andale Mono';text-indent:0pt;text-align:start;text-decoration:none;text-decoration-line:none;letter-spacing:normal;word-spacing:normal;text-transform:none;direction:ltr;text-anchor:start;display:inline;overflow:visible;visibility:visible;fill:#1a1a1a;fill-opacity:1;stroke:none;stroke-width:5.99873972;marker:none"
     d="M 29.705078 -0.083984375 C 27.658234 -0.075805254 25.583576 0.00449542 25.1875 0.013671875 L 7 0.013671875 C 6.813106 -0.004321175 6.624454 -0.004321175 6.4375 0.013671875 C 5.062346 0.27607036 3.975341 1.6123101 4 3.0117188 L 4 45 C 4.00015 46.570313 5.429312 47.99985 7 48 L 41 48 C 42.570687 47.99985 43.99985 46.570313 44 45 L 44 18.818359 C 44.018 18.026395 44.215294 8.8914456 43.664062 8.3222656 L 34.054688 0.24804688 C 33.770027 -0.027426575 31.751922 -0.092163496 29.705078 -0.083984375 z M 31.195312 3.0097656 L 31.328125 10.513672 C 31.340155 11.195372 31.966379 11.80479 32.644531 11.792969 L 40.416016 11.65625 C 40.548988 11.674363 40.684161 11.672765 40.816406 11.650391 L 40.898438 14.679688 L 41 18.771484 L 41 44.271484 L 41 44.998047 L 40.25 44.998047 L 7.75 44.998047 L 7 44.998047 L 7 44.271484 L 7 3.7714844 L 7 3.0214844 L 7.75 3.0214844 L 25.34375 3.0214844 L 25.671875 3.0214844 L 31.195312 3.0097656 z M 13.390625 13.185547 C 11.183171 13.185547 9.3867188 14.980044 9.3867188 17.1875 L 9.3867188 38.462891 C 9.3867188 40.670344 11.183171 42.466797 13.390625 42.466797 L 14.763672 42.466797 C 16.971129 42.466797 18.767578 40.670344 18.767578 38.462891 L 18.767578 17.1875 C 18.767578 14.980044 16.971129 13.185547 14.763672 13.185547 L 13.390625 13.185547 z M 25.171875 13.185547 C 22.964418 13.185547 21.167969 14.980044 21.167969 17.1875 L 21.167969 18.560547 C 21.167969 20.768004 22.964418 22.564453 25.171875 22.564453 L 34.666016 22.564453 C 36.873474 22.564453 38.669922 20.768004 38.669922 18.560547 L 38.669922 17.1875 C 38.669922 14.980044 36.873474 13.185547 34.666016 13.185547 L 25.171875 13.185547 z M 13.390625 15.472656 L 14.763672 15.472656 C 15.709724 15.472656 16.478516 16.241447 16.478516 17.1875 L 16.478516 38.462891 C 16.478516 39.408943 15.709724 40.179688 14.763672 40.179688 L 13.390625 40.179688 C 12.444572 40.179688 11.675781 39.408943 11.675781 38.462891 L 11.675781 17.1875 C 11.675781 16.241447 12.444572 15.472656 13.390625 15.472656 z M 25.171875 15.472656 L 34.666016 15.472656 C 35.612069 15.472656 36.380859 16.241447 36.380859 17.1875 L 36.380859 18.560547 C 36.380859 19.506603 35.612069 20.277344 34.666016 20.277344 L 25.171875 20.277344 C 24.225822 20.277344 23.457031 19.506603 23.457031 18.560547 L 23.457031 17.1875 C 23.457031 16.241447 24.225822 15.472656 25.171875 15.472656 z M 25.171875 25.023438 C 22.964418 25.023438 21.167969 26.819887 21.167969 29.027344 L 21.167969 38.462891 C 21.167969 40.670344 22.964418 42.466797 25.171875 42.466797 L 34.666016 42.466797 C 36.873474 42.466797 38.669922 40.670344 38.669922 38.462891 C 38.669922 37.831158 38.157121 37.320312 37.525391 37.320312 C 36.893659 37.320312 36.380859 37.831158 36.380859 38.462891 C 36.380859 39.408943 35.612069 40.179688 34.666016 40.179688 L 25.171875 40.179688 C 24.225822 40.179688 23.457031 39.408943 23.457031 38.462891 L 23.457031 29.027344 C 23.457031 28.081292 24.225822 27.310547 25.171875 27.310547 L 34.666016 27.310547 C 35.612069 27.310547 36.380859 28.081292 36.380859 29.027344 L 36.380859 32.744141 C 36.380859 33.375873 36.893659 33.888672 37.525391 33.888672 C 38.157121 33.888672 38.669922 33.375873 38.669922 32.744141 L 38.669922 29.027344 C 38.669922 26.819887 36.873474 25.023438 34.666016 25.023438 L 25.171875 25.023438 z "
     id="path14075" />
</svg>

<svg xmlns="http://www.w3.org/2000/svg" width="48" height="48"><defs><linearGradient id="a"><stop offset="0" stop-color="#dc85e9"/><stop offset="1" stop-color="#f2cbf8"/></linearGradient><linearGradient id="b"><stop offset="0" stop-color="#dc85e9"/><stop offset="1" stop-color="#f2cbf8"/></linearGradient><linearGradient id="c"><stop offset="0" stop-color="#fff" stop-opacity=".588"/><stop offset="1" stop-color="#fff" stop-opacity=".863"/></linearGradient><linearGradient id="d"><stop offset="0" stop-color="#b3b3b3"/><stop offset="1" stop-color="#e6e6e6"/></linearGradient><linearGradient id="e"><stop offset="0" stop-color="#e694bb"/><stop offset=".262" stop-color="#d3819a"/><stop offset=".705" stop-color="#b25a64"/><stop offset="1" stop-color="#98313d"/></linearGradient></defs><path style="line-height:normal;text-indent:0;text-align:start;text-decoration-line:none;text-transform:none;marker:none" d="M29.705-.084c-2.047.008-4.121.088-4.517.098H7a2.938 2.938 0 0 0-.563 0C5.063.276 3.975 1.612 4 3.012V45c0 1.57 1.43 3 3 3h34c1.57 0 3-1.43 3-3V18.818c.018-.792.215-9.927-.336-10.496L34.054.248c-.284-.275-2.302-.34-4.349-.332zm1.49 3.094l.133 7.504c.012.681.638 1.29 1.317 1.279l7.771-.137c.133.018.268.017.4-.006l.082 3.03L41 18.77v26.227H7V3.021h18.672l5.523-.011zM13.391 13.186a4.007 4.007 0 0 0-4.004 4.002v21.275a4.009 4.009 0 0 0 4.004 4.004h1.373a4.009 4.009 0 0 0 4.004-4.004V17.187a4.007 4.007 0 0 0-4.004-4.001H13.39zm11.78 0a4.007 4.007 0 0 0-4.003 4.002v1.373a4.009 4.009 0 0 0 4.004 4.003h9.494a4.009 4.009 0 0 0 4.004-4.003v-1.373a4.007 4.007 0 0 0-4.004-4.002h-9.494zm-11.78 2.287h1.373c.946 0 1.715.768 1.715 1.714v21.276c0 .946-.77 1.717-1.715 1.717H13.39c-.946 0-1.715-.771-1.715-1.717V17.187c0-.946.769-1.714 1.715-1.714zm11.78 0h9.495c.946 0 1.715.768 1.715 1.714v1.374c0 .946-.769 1.716-1.715 1.716h-9.494c-.946 0-1.715-.77-1.715-1.716v-1.373c0-.947.769-1.715 1.715-1.715zm0 9.55a4.009 4.009 0 0 0-4.003 4.004v9.436a4.009 4.009 0 0 0 4.004 4.004h9.494a4.009 4.009 0 0 0 4.004-4.004c0-.632-.513-1.143-1.145-1.143-.631 0-1.144.511-1.144 1.143 0 .946-.769 1.717-1.715 1.717h-9.494c-.946 0-1.715-.771-1.715-1.717v-9.436c0-.946.769-1.716 1.715-1.716h9.494c.946 0 1.715.77 1.715 1.716v3.717a1.145 1.145 0 0 0 2.289 0v-3.717a4.009 4.009 0 0 0-4.004-4.004h-9.494z" color="#000" font-weight="400" font-family="Andale Mono" overflow="visible" fill="#1a1a1a"/></svg>
